ui/StatusQ/src/assets/img/icons/arrow-up.svg

<svg fill="none" height="24" viewBox="0 0 24 24" width="24" xmlns="http://www.w3.org/2000/svg"><path d="m6.53033 10.5303c-.29289.2929-.76777.2929-1.06066 0s-.29289-.76774 0-1.06063l6.00003-6c.2929-.29289.7677-.29289 1.0606 0l6 6c.2929.29289.2929.76773 0 1.06063s-.7677.2929-1.0606 0l-3.8661-3.86609c-.315-.31498-.8536-.09189-.8536.35356v12.98223c0 .4142-.3358.75-.75.75s-.75-.3358-.75-.75v-12.98223c0-.44546-.5386-.66854-.8536-.35356z" fill="#000"/></svg>

<svg width="24" height="24" viewBox="0 0 24 24" fill="none" xmlns="http://www.w3.org/2000/svg">
<path d="M6.53033 10.5303C6.23744 10.8232 5.76256 10.8232 5.46967 10.5303C5.17678 10.2374 5.17678 9.76256 5.46967 9.46967L11.4697 3.46967C11.7626 3.17678 12.2374 3.17678 12.5303 3.46967L18.5303 9.46967C18.8232 9.76256 18.8232 10.2374 18.5303 10.5303C18.2374 10.8232 17.7626 10.8232 17.4697 10.5303L13.6036 6.66421C13.2886 6.34923 12.75 6.57232 12.75 7.01777L12.75 20C12.75 20.4142 12.4142 20.75 12 20.75C11.5858 20.75 11.25 20.4142 11.25 20L11.25 7.01777C11.25 6.57231 10.7114 6.34923 10.3964 6.66421L6.53033 10.5303Z" fill="black"/>
</svg>
